pages/features/social-authentication.svg

<?xml version="1.0" encoding="UTF-8" standalone="no"?>
<svg width="105px" height="105px" viewBox="0 0 105 105" version="1.1" xmlns="http://www.w3.org/2000/svg" xmlns:xlink="http://www.w3.org/1999/xlink">
    <!-- Generator: Sketch 3.7.2 (28276) - http://www.bohemiancoding.com/sketch -->
    <title>Group 20</title>
    <desc>Created with Sketch.</desc>
    <defs></defs>
    <g id="Desktop-design" stroke="none" stroke-width="1" fill="none" fill-rule="evenodd">
        <g id="Features" transform="translate(-1149.000000, -6801.000000)">
            <g id="Group-10" transform="translate(0.000000, 6464.000000)">
                <g id="Group-20" transform="translate(1149.000000, 337.000000)">
                    <circle id="Oval-356-Copy-2" fill="#49B9E8" cx="52.5" cy="52.5" r="52.5"></circle>
                    <path d="M68.054,46.516002 C68.054,56.496002 60.46,68 46.574,68 C42.308,68 38.342,66.75 35,64.606 C35.592,64.676 36.192,64.712 36.8,64.712 C40.34,64.712 43.594,63.504 46.176,61.482 C42.874,61.42 40.084,59.24 39.124,56.24 C39.584,56.326 40.058,56.372 40.544,56.372 C41.234,56.372 41.902,56.282 42.534,56.11 C39.08,55.414 36.478,52.364002 36.478,48.704002 L36.478,48.610002 C37.496,49.176002 38.662,49.516002 39.898,49.556002 C37.872,48.200002 36.538,45.892002 36.538,43.270002 C36.538,41.888002 36.91,40.590002 37.562,39.474002 C41.284,44.044002 46.85,47.048002 53.124,47.364002 C52.996,46.810002 52.93,46.236002 52.93,45.642002 C52.93,41.474002 56.308,38.096002 60.478,38.096002 C62.65,38.096002 64.612,39.010002 65.99,40.478002 C67.708,40.138002 69.324,39.510002 70.784,38.646002 C70.22,40.408002 69.022,41.888002 67.464,42.822002 C68.992,42.638002 70.444,42.236002 71.8,41.634002 C70.788,43.150002 69.508,44.478002 68.032,45.540002 C68.048,45.864002 68.054,46.192002 68.054,46.516002 Z" id="Page-1" fill="#FFFFFF"></path>
                </g>
            </g>
        </g>
    </g>
</svg>

<svg width="105" height="105" viewBox="0 0 105 105" xmlns="http://www.w3.org/2000/svg"><g transform="translate(0 0)" fill="none"><circle fill="#49B9E8" cx="52.5" cy="52.5" r="52.5"/><path d="M68.054 46.516c0 9.98-7.594 21.484-21.48 21.484-4.266 0-8.232-1.25-11.574-3.394.592.07 1.192.106 1.8.106 3.54 0 6.794-1.208 9.376-3.23-3.302-.062-6.092-2.242-7.052-5.242.46.086.934.132 1.42.132.69 0 1.358-.09 1.99-.262-3.454-.696-6.056-3.746-6.056-7.406v-.094c1.018.566 2.184.906 3.42.946-2.026-1.356-3.36-3.664-3.36-6.286 0-1.382.372-2.68 1.024-3.796 3.722 4.57 9.288 7.574 15.562 7.89-.128-.554-.194-1.128-.194-1.722 0-4.168 3.378-7.546 7.548-7.546 2.172 0 4.134.914 5.512 2.382 1.718-.34 3.334-.968 4.794-1.832-.564 1.762-1.762 3.242-3.32 4.176 1.528-.184 2.98-.586 4.336-1.188-1.012 1.516-2.292 2.844-3.768 3.906.016.324.022.652.022.976z" fill="#fff"/></g></svg>
